docs/images/losant-icon.svg

<svg viewBox="0 0 118.92 118.92" xmlns="http://www.w3.org/2000/svg"><circle cx="59.46" cy="59.46" fill="#ff495c" r="59.46"/><path d="m77.22 33-17.91 19.6-18.71-18.75-25.72 25.75 26.44 26.33 18-19.62 18.6 18.55.49.49 25.59-25.84zm0 13.88 12.92 12.73-11.86 12-12.37-12.41zm-35.88 25.4-12.67-12.68 12-12 12.13 12.13zm37.07 11.13-18.11-18.11-6.58-6.58-13.05-13.05-13.94 13.93 13.27 13.24v9.8l-23.14-23 23.74-23.85 17.79 17.82 6.61 6.6 13.3 13.32 13.8-13.94-13.53-13.24v-10.06l23.53 23.23z" fill="#f5f4f3"/></svg>

<svg xmlns="http://www.w3.org/2000/svg" viewBox="0 0 118.92 118.92"><defs><style>.cls-1{fill:#ff495c;}.cls-2{fill:#f5f4f3;}</style></defs><title>losant-icon</title><g id="Layer_2" data-name="Layer 2"><g id="Layer_1-2" data-name="Layer 1"><circle class="cls-1" cx="59.46" cy="59.46" r="59.46"/><path class="cls-2" d="M77.22,33V33L59.31,52.6,40.6,33.85,14.88,59.6,41.32,85.93h0l18-19.62L77.92,84.86l.49.49L104,59.51Zm0,13.88h0L90.14,59.61l-11.86,12L65.91,59.2ZM41.34,72.28h0L28.67,59.6l12-12L52.8,59.73ZM78.41,83.41,60.3,65.3l-6.58-6.58L40.67,45.67,26.73,59.6,40,72.84v9.8l-23.14-23L40.6,35.79,58.39,53.61,65,60.21l13.3,13.32,13.8-13.94L78.57,46.35V36.29L102.1,59.52Z"/></g></g></svg>
